X: 21262
Q: "Slow"
M: 6/8
L: 1/8
K: D
|: A |\
~Bdc d>ef | edc cB^A | Bdc ~d>ef | {f}e3 d2c/d/ |\
ef/e/d/c/ de/d/c/B/ | AFA d2d/c/ | ~B>cd A<FD | E3 D2 :|



